packages/icons/src/finger-left-fill.svg

<svg width="24" height="24" viewBox="0 0 24 24" fill="none" xmlns="http://www.w3.org/2000/svg">
<path d="M14.82 19.4801L19.28 18.8501C20.27 18.7101 21 17.8601 21 16.8701V10.7101C21 10.1801 20.79 9.42012 20.41 9.05012L15.62 4.50012L14.78 5.33012C14.54 5.57012 14.43 5.91012 14.5 6.25012L15.24 9.50012H4.5C3.67 9.50012 3 10.1701 3 11.0001C3 11.8301 3.67 12.5001 4.5 12.5001H10.5V13.4101C10.5 13.7201 10.57 14.0301 10.71 14.3001L12.75 18.3901C13.14 19.1601 13.97 19.6001 14.82 19.4801Z" fill="black"/>
</svg>

<svg xmlns="http://www.w3.org/2000/svg" width="24" height="24" fill="none" viewBox="0 0 24 24">
  <path fill="#000" d="m14.82 19.48 4.46-.63c.99-.14 1.72-.99 1.72-1.98v-6.16c0-.53-.21-1.29-.59-1.66L15.62 4.5l-.84.83c-.24.24-.35.58-.28.92l.74 3.25H4.5c-.83 0-1.5.67-1.5 1.5s.67 1.5 1.5 1.5h6v.91c0 .31.07.62.21.89l2.04 4.09c.39.77 1.22 1.21 2.07 1.09Z"/>
</svg>
